X:51
T:Dowitchers
R:reel
C:Paul S. Cranford
O:Cape Breton Island
S:http://www.cranfordpub.com
D:currently unrecorded
B:currently unpublished in book form
Z:psc, (re-formatted,updated 9/17/04)
N:
H:                                                        copyrights Cranford Publications, SOCAN
L:1/8
Q:333
M:C|
K:D
A|d2 Ac dAFA|GE=CE DA, ~A,2|DA,FA, DFAF|GABd A2 Ac|
d2 Ac dAFA|GE=CE DA, ~A,2|DA,FA, DFAF|GECE D3:|
|:z| DA, ~A,2 =CDEG|Ad ~d2 =cAGc|Ad ~d2 edeg|adba gece|
dA A/A/A GE=CE|=FDGF ED=CE|DA,=CB, A,FAF|GECE D3:|
